X:43
T:The Red Haired Boy
T:The Red Headed Irishman
T:The Little Beggarman
T:The Jolly Little Beggarman
R:Reel
C:Irish and Appalachian
M:4/4
Q:1/4=80
K:D treble
L:1/8
"A"EAAG ABcd | efec "D"d2 cd | "A"eAAA ABcA | "G"BGEF G2 FG | 
"A"EAAG ABcd | efec "D"d2 cd | "A"eaaa "E7"afed | "A"cAB^G A2 FG |
"A"EAAG ABcd | efec "D"d2 cd | "A"edcB ABce | "G"BGEF G2 GF |
"A"EAAG ABcd | efec "D"dB cd | "A"ea2b "E7"aged | "A"c2A2 A4 ||
"G"g2 ga gfef | gfec "D"d2 cd | "A"eAAA ABcA | "G"BGEF G2 FG |
"A"EAAG ABcd | efec "D"d2 cd | "A"eaaa "E7"afed | "A"cAB^G A2 ef |
"G"g2 ef g2ef | gfec "D"d2 cd | "A"edcB ABce | "G"BGEF G2 GF |
"A"EAAG ABcd | efec "D"dB cd | "A"ea2b "E7"aged | "A"c2A2 A4 ||


